X:1
T:Title
%%score { 1 | 2 }
L:1/8
M:4/4
K:Ab
V:1 treble nm="Grand Piano"
V:2 bass 
V:1
 z4 z2[Q:1/4=100] [CE]2 | [CE]2 [CA]2 [CA]2 [Ec]2 | BA F2 [CE]2 [CE]2 | [EA]2 [EA]2 [Ed]2 [Ec]2 | %4
[M:3/4] [EB]6 |[M:1/4] [DE]2 |[M:4/4] [CE]2 [CA]2 [CA]2 [Ec]2 | BA F2 [CE]2 [CE]2 | %8
 [EA]2 [EA]2 [Ec]2 [DB]2 |[M:3/4] [CA]6 |[M:1/4] [CE][CA] |[M:4/4] [Ec]2 [Ec]2 [Ec]4 | %12
 [Fd]2 [Fd]2 [Fd]4 | [Ec]2 e>e e2 c2 | B6 EA | [Ec]2 [Ec]2 [Ec]2 [EB][EA] | F2 A2 E2 Ac | %17
 e3 e [Ac]2 [GB]2 |[M:3/4] [CEA]6 |] %19
V:2
 z4 z2 [A,,A,]2 | [A,,A,]2 [A,,E,]2 [A,,E,]2 [A,,A,]2 | [D,F,D]2 [D,A,D]2 [A,,A,]2 [A,,A,]2 | %3
 [C,A,]2 [C,A,]2 [B,,G,]2 [A,,A,]2 |[M:3/4] [E,G,]6 |[M:1/4] [E,G,]2 | %6
[M:4/4] [A,,A,]2 [A,,E,]2 [A,,E,]2 [A,,A,]2 | [D,F,D]2 [D,A,D]2 [A,,A,]2 [A,,A,]2 | %8
 [C,A,]2 [C,A,]2 [E,A,]2 [E,G,]2 |[M:3/4] [A,,A,]6 |[M:1/4] [A,,A,][A,,A,] | %11
[M:4/4] [A,,A,]2 [A,,A,]2 [A,,A,]4 | [D,A,]2 [D,A,]2 [D,A,]4 | %13
 [A,,A,]2 [A,CE]>[A,CE] [A,CE]2 [A,E]2 | [E,G,E]6 CC | [A,,A,]2 [A,,A,]2 [A,,A,]2 [B,,G,][C,A,] | %16
 [D,A,D]2 [F,A,D]2[K:treble] [A,C]2 [A,CE][A,EA] | [A,CA]3 [A,CA][K:bass] [E,E]2 [E,D]2 | %18
[M:3/4] [A,,A,]6 |] %19

